X: 32882
T: Portpatrick
R: jig
M: 6/8
K: Amajor
ecBA A2 Bc|dcBA B3 f|ecBA A3 A|BABc e3 f|
ecBA A3 Bc|fcBA B2 AB|c2 fa ec B/c/e|{d}c2 BA A2:|
f2 af e2 ce|f2 af e3 e|fefa ecBA|BABc d3 f|
e2 fg agfe|faec B2 AB|c2 af ec B/c/e|c2 BA A2:|
ecA ABc|d2 c B2 A|ecA ABA|B2 c d2 f|
ecA ABc|d2 c B2 A|c/d/ec dBe|cAA A2:|
fdf ece|fdf ece|fga ecA|B2 c d2 f|
efg agf|edc B2 A|c/d/ec dBe|cAA A2:|

